X:1
T:Overberg, LM
T:Johann Christian Heinrich Rink (1770-1846)
T:Overberg, LM
T:Public Domain
C:Johann Christian Heinrich Rink (1770-1846)
Z:Public Domain
%%score ( 1 2 ) ( 3 4 )
L:1/8
M:2/4
K:D
V:1 treble 
V:2 treble 
V:3 bass 
V:4 bass 
V:1
 [DF]2 [DF][EG] | [FA]2 [DF]2 | ([FA][EG]) ([DF][CE]) | [DF]3 [DF] | E2 [EA]2 | (Fd) ([Ec][FB]) | %6
 [EA]2 [D^G]2 | [CA]3 [DA] | [DB]2 [DF]2 | [EG]3 [EG] | [EA]2 [CE]2 | [DF]3 [DA] | (dc) (BA) | %13
 [DB]2 (AG) | [DF]2 [CE]2 x | D4 |] %16
V:2
 x4 | x4 | x4 | x4 | E2 x2 | F2 x2 | x4 | x4 | x4 | x4 | x4 | x4 | D2 D2 | x2 D2 | x5 | D4 |] %16
V:3
 [D,A,]2 [D,A,][D,A,] | [D,A,]2 [D,A,]2 | [A,,A,]2 [A,,A,]2 | [D,A,]3 [D,A,] | [C,A,]2 [A,,C]2 | %5
 (D,B,,) ([C,E][D,D]) | [E,C]2 [E,B,]2 | [A,,A,]3 [D,F,] | [B,,F,]2 [B,,B,]2 | [E,B,]3 [E,B,] | %10
 [C,A,]2 [A,,A,]2 | [D,A,]3 [D,F,] | (B,A,) (G,F,) | G,2 ([F,A,][G,B,]) | A,2 z G, x | [D,F,]4 |] %16
V:4
 x4 | x4 | x4 | x4 | x4 | D2 x2 | x4 | x4 | x4 | x4 | x4 | x4 | D,2 D,2 | G,2 x2 | A,3 A,,2 | x4 |] %16

